X:1
T:Blackwaterside
M:2/2
L:1/4
K:G
 D G A| B4| z2 G3/4- A/4- B| c3/2-d/4-c/4 BA/2-G/2| G4| z2 D- G| =F4-|\
 FE/2-D/2 C3/2 D/2| D4| z2 C D/2 E/2-| E3/2-=F/4-E/4 D G| G3 B,| D3/2-E/4-D/4 B,- D|\
 D4| z2 B,/2 D3/2| C4-| C/2 B,- A,/2| G,3/2 G,/2| G,4|
